Obsidian-SemiLight/actions/24s/zoom-fit-width.svg

<svg viewBox="0 0 24 24" xmlns="http://www.w3.org/2000/svg"><path d="m7 7v10h10v-10zm1 1h8v8h-8zm-2 2-2 2 2 2zm12 0v4l2-2z" fill="#4d4d4d"/></svg>

<svg xmlns="http://www.w3.org/2000/svg" viewBox="0 0 24 24">
  <defs id="defs3051">
    <style type="text/css" id="current-color-scheme">
      .ColorScheme-Text {
        color:#4d4d4d;
      }
      </style>
  </defs>
 <path style="fill:currentColor;fill-opacity:1;stroke:none" 
     d="M 7 7 L 7 17 L 17 17 L 17 7 L 7 7 z M 8 8 L 16 8 L 16 16 L 8 16 L 8 8 z M 6 10 L 4 12 L 6 14 L 6 10 z M 18 10 L 18 14 L 20 12 L 18 10 z "
     class="ColorScheme-Text"
     />
</svg>
